22x22/actions/view-left-close.svg

<svg xmlns="http://www.w3.org/2000/svg" viewBox="0 0 22 22">
  <defs id="defs3051">
    <style type="text/css" id="current-color-scheme">
      .ColorScheme-Text {
        color:#5d656b;
      }
      .ColorScheme-Highlight {
        color:#3daee9;
      }
      </style>
  </defs>
 <path 
     style="fill:currentColor;fill-opacity:1;stroke:none" 
     d="M 3 3 L 3 19 L 13 19 L 14 19 L 19 19 L 19 3 L 14 3 L 13 3 L 3 3 z M 4 7 L 13 7 L 13 18 L 4 18 L 4 7 z M 14 7 L 18 7 L 18 18 L 14 18 L 14 7 z "
     class="ColorScheme-Text"
     />
 <path 
     style="fill:#da4453;fill-opacity:1;stroke:none" 
     d="m 428.42132,535.79074 -0.70703,0.70703 1.79297,1.79297 -1.79297,1.79297 0.70703,0.70703 1.79297,-1.79297 1.79297,1.79297 0.70703,-0.70703 -1.79297,-1.79297 1.79297,-1.79297 -0.70703,-0.70703 -1.79297,1.79297 -1.79297,-1.79297 z"
     transform="translate(-421.71429,-525.79074)"
     />
</svg>

<svg xmlns="http://www.w3.org/2000/svg" viewBox="0 0 22 22"><defs id="defs3051"><style type="text/css" id="current-color-scheme"></style></defs><path style="fill:currentColor;fill-opacity:1;stroke:none;color:#5d656b" d="M3 3v16h16V3H3zm1 4h9v11H4V7zm10 0h4v11h-4V7z"/><path style="fill:#da4453;fill-opacity:1;stroke:none" d="m428.421 535.79-.707.708 1.793 1.793-1.793 1.793.707.707 1.793-1.793 1.793 1.793.707-.707-1.793-1.793 1.793-1.793-.707-.707-1.793 1.793-1.793-1.793z" transform="translate(-421.714 -525.79)"/></svg>
